X: 10654
Q: "Lively."
M: C
L: 1/8
K: D
|:\
{Bc}d2cB AFFA | GEFD {F}E2E2 |
{e}dcdB A2FA | GEAF D3d |\
{Bc}d2cB AFFf | gefd cee2 |\
{e}dBdB AFA2 | Bdce d2D2 |]


